X:1
T:William and Nancy
M:3/4
L:1/4
K:G
 G| B d B/2A/2| G F G/2G/2| B G A| G2 G| B dB/2-A/2| G F G| B G A|\
 G2 G/2 G/4G/4| c d d| e g d/2d/2| f e c| d2 g| g dd/2-B/2| A G A|\
 B G A| G2||

